src/images/svg/markets/friendly-support-new.svg

<svg width="48" height="48" viewBox="0 0 48 48" fill="none" xmlns="http://www.w3.org/2000/svg">
<mask id="mask0_11988_3547" style="mask-type:alpha" maskUnits="userSpaceOnUse" x="0" y="5" width="37" height="33">
<path fill-rule="evenodd" clip-rule="evenodd" d="M0 5.70538H36.9807V37.3234H0V5.70538Z" fill="white"/>
</mask>
<g mask="url(#mask0_11988_3547)">
<path fill-rule="evenodd" clip-rule="evenodd" d="M35.1358 27.8384H34.6488V19.8904C34.6488 12.0684 28.2848 5.70538 20.4628 5.70538H16.5178C8.69576 5.70538 2.33176 12.0684 2.33176 19.8904V27.8384H1.84476C0.825756 27.8384 -0.000244141 28.6644 -0.000244141 29.6834V35.4784C-0.000244141 36.4974 0.825756 37.3234 1.84476 37.3234H5.58676V27.8384H4.17676V19.8904C4.17676 13.0854 9.71276 7.54938 16.5178 7.54938H20.4628C27.2678 7.54938 32.8038 13.0854 32.8038 19.8904V27.8384H31.3938V37.3234H35.1358C36.1548 37.3234 36.9808 36.4974 36.9808 35.4784V29.6834C36.9808 28.6644 36.1548 27.8384 35.1358 27.8384Z" fill="#85ACAF"/>
</g>
<mask id="mask1_11988_3547" style="mask-type:alpha" maskUnits="userSpaceOnUse" x="7" y="21" width="23" height="27">
<path fill-rule="evenodd" clip-rule="evenodd" d="M7.42297 21.4954H29.558V48H7.42297V21.4954Z" fill="white"/>
</mask>
<g mask="url(#mask1_11988_3547)">
<path fill-rule="evenodd" clip-rule="evenodd" d="M27.708 27.8384V25.3274C27.708 21.7774 25.285 21.5694 25.008 21.5574L22.352 21.4954V23.8444L21.681 24.0354C17.021 25.3614 11.662 23.7694 9.26697 22.8564L9.26797 27.8384H7.42397L7.42297 33.6784L13.064 39.5744H19.618C20.128 39.5744 20.54 39.9874 20.54 40.4974C20.54 41.0064 20.128 41.4194 19.618 41.4194H12.671C12.42 41.4194 12.178 41.3164 12.004 41.1344L7.42297 36.3464V39.0934C7.42297 40.0714 7.81197 41.0104 8.50297 41.7024L13.721 46.9194C14.412 47.6114 15.351 48.0004 16.329 48.0004H20.651C21.63 48.0004 22.567 47.6114 23.26 46.9194L28.477 41.7024C29.169 41.0104 29.558 40.0714 29.558 39.0934V27.8384H29.431H27.708Z" fill="#85ACAF"/>
</g>
<path fill-rule="evenodd" clip-rule="evenodd" d="M19.2754 9.14399L17.5734 9.15299C10.9864 9.18999 5.66638 14.542 5.66638 21.13V25.209C5.66638 26.354 6.40138 27.316 7.42238 27.678V20.015L8.74038 20.639C8.80438 20.669 15.1594 23.569 20.5064 22.427V19.608L25.0604 19.713C26.6144 19.75 29.5524 20.971 29.5524 25.328V27.677H29.5584C30.5794 27.314 31.3144 26.35 31.3144 25.205V21.117C31.3144 14.479 25.9134 9.10699 19.2754 9.14399Z" fill="#85ACAF"/>
<g style="mix-blend-mode:multiply">
<path fill-rule="evenodd" clip-rule="evenodd" d="M36 0C29.373 0 24 5.372 24 12C24 18.627 29.373 24 36 24C42.627 24 48 18.627 48 12C48 5.372 42.627 0 36 0Z" fill="#FF444F"/>
</g>
<path fill-rule="evenodd" clip-rule="evenodd" d="M34.3008 17.0028L30 12.702L31.8024 10.8996L34.3008 13.398L40.1976 7.5L42 9.3024L34.3008 17.0028Z" fill="white"/>
</svg>

<svg width="48" height="48" fill="none" xmlns="http://www.w3.org/2000/svg"><mask id="a" style="mask-type:alpha" maskUnits="userSpaceOnUse" x="0" y="5" width="37" height="33"><path fill-rule="evenodd" clip-rule="evenodd" d="M0 5.705h36.98v31.618H0V5.705Z" fill="#fff"/></mask><g mask="url(#a)"><path fill-rule="evenodd" clip-rule="evenodd" d="M35.136 27.838h-.487V19.89c0-7.822-6.364-14.185-14.186-14.185h-3.945c-7.822 0-14.186 6.363-14.186 14.185v7.948h-.487A1.845 1.845 0 0 0 0 29.683v5.795c0 1.02.826 1.845 1.845 1.845h3.742v-9.485h-1.41V19.89c0-6.805 5.536-12.34 12.34-12.34h3.946c6.805 0 12.34 5.535 12.34 12.34v7.948h-1.41v9.485h3.743a1.845 1.845 0 0 0 1.845-1.845v-5.795a1.845 1.845 0 0 0-1.845-1.845Z" fill="#85ACAF"/></g><mask id="b" style="mask-type:alpha" maskUnits="userSpaceOnUse" x="7" y="21" width="23" height="27"><path fill-rule="evenodd" clip-rule="evenodd" d="M7.423 21.495h22.135V48H7.423V21.495Z" fill="#fff"/></mask><g mask="url(#b)"><path fill-rule="evenodd" clip-rule="evenodd" d="M27.708 27.838v-2.51c0-3.55-2.423-3.759-2.7-3.77l-2.656-.063v2.35l-.671.19c-4.66 1.326-10.019-.266-12.414-1.179l.001 4.982H7.424l-.001 5.84 5.641 5.896h6.554a.922.922 0 1 1 0 1.845h-6.947a.924.924 0 0 1-.667-.285l-4.581-4.788v2.747c0 .978.389 1.917 1.08 2.61l5.218 5.216A3.687 3.687 0 0 0 16.329 48h4.322a3.69 3.69 0 0 0 2.609-1.08l5.217-5.218a3.69 3.69 0 0 0 1.081-2.609V27.838h-1.85Z" fill="#85ACAF"/></g><path fill-rule="evenodd" clip-rule="evenodd" d="m19.275 9.144-1.702.009C10.986 9.19 5.666 14.542 5.666 21.13v4.079a2.62 2.62 0 0 0 1.756 2.469v-7.663l1.318.624c.064.03 6.42 2.93 11.766 1.788v-2.819l4.554.105c1.554.037 4.492 1.258 4.492 5.615v2.349h.006a2.625 2.625 0 0 0 1.756-2.472v-4.088c0-6.638-5.4-12.01-12.039-11.973Z" fill="#85ACAF"/><path fill-rule="evenodd" clip-rule="evenodd" d="M36 0c-6.627 0-12 5.372-12 12 0 6.627 5.373 12 12 12s12-5.373 12-12c0-6.628-5.373-12-12-12Z" fill="#FF444F" style="mix-blend-mode:multiply"/><path fill-rule="evenodd" clip-rule="evenodd" d="M34.3 17.003 30 12.702l1.802-1.802 2.499 2.498L40.198 7.5 42 9.302l-7.7 7.7Z" fill="#fff"/></svg>
